common/src/main/resources/glyphs/plugins/aqua/locators/ariaLabel@12x12.svg

<svg xmlns="http://www.w3.org/2000/svg" width="12" height="12" data-big="true" viewBox="0 0 24 24"><path fill="#80cbc4" d="M19 3H5c-1.1 0-2 .9-2 2v14c0 1.1.9 2 2 2h14c1.1 0 2-.9 2-2V5c0-1.1-.9-2-2-2M7.4 18C5.9 16.5 5 14.3 5 12s.9-4.5 2.4-6l1.6.7C7.7 7.9 7 9.9 7 12s.7 4.1 2 5.3zm5.3-3-.8-2-1.4 2H9l2.3-3.1L10 9h1.3l.8 2 1.4-2H15l-2.2 3 1.3 3zm3.9 3-1.6-.7c1.3-1.3 2-3.2 2-5.3s-.7-4.1-2-5.3l1.6-.7c1.5 1.5 2.4 3.7 2.4 6s-.9 4.5-2.4 6"/></svg>

<!--
  - The MIT License (MIT)
  -
  - Copyright (c) 2015-2024 Elior "Mallowigi" Boukhobza
  -
  - Permission is hereby granted, free of charge, to any person obtaining a copy
  - of this software and associated documentation files (the "Software"), to deal
  - in the Software without restriction, including without limitation the rights
  - to use, copy, modify, merge, publish, distribute, sublicense, and/or sell
  - copies of the Software, and to permit persons to whom the Software is
  - furnished to do so, subject to the following conditions:
  -
  - The above copyright notice and this permission notice shall be included in all
  - copies or substantial portions of the Software.
  -
  - THE SOFTWARE IS PROVIDED "AS IS", WITHOUT WARRANTY OF ANY KIND, EXPRESS OR
  - IMPLIED, INCLUDING BUT NOT LIMITED TO THE WARRANTIES OF MERCHANTABILITY,
  - FITNESS FOR A PARTICULAR PURPOSE AND NONINFRINGEMENT. IN NO EVENT SHALL THE
  - AUTHORS OR COPYRIGHT HOLDERS BE LIABLE FOR ANY CLAIM, DAMAGES OR OTHER
  - LIABILITY, WHETHER IN AN ACTION OF CONTRACT, TORT OR OTHERWISE, ARISING FROM,
  - OUT OF OR IN CONNECTION WITH THE SOFTWARE OR THE USE OR OTHER DEALINGS IN THE
  - SOFTWARE.
  -->


<svg data-big="true" xmlns="http://www.w3.org/2000/svg" version="1.1" width="12px" height="12px" viewBox="0 0 24 24">
  <path fill="#80cbc4"
        d="M19 3H5C3.9 3 3 3.9 3 5V19C3 20.1 3.9 21 5 21H19C20.1 21 21 20.1 21 19V5C21 3.9 20.1 3 19 3M7.4 18C5.9 16.5 5 14.3 5 12S5.9 7.5 7.4 6L9 6.7C7.7 7.9 7 9.9 7 12S7.7 16.1 9 17.3L7.4 18M12.7 15L11.9 13L10.5 15H9L11.3 11.9L10 9H11.3L12.1 11L13.5 9H15L12.8 12L14.1 15H12.7M16.6 18L15 17.3C16.3 16 17 14.1 17 12S16.3 7.9 15 6.7L16.6 6C18.1 7.5 19 9.7 19 12S18.1 16.5 16.6 18Z"/>
</svg>
